T: Town Of Cootehill, The
M: 6/8
L: 1/8
K: Dmaj
BdB GBd | cec E2 G | FAF DFA | GBG D2 c |BdB GBd | cec E2 G | FED AFD | G3 G :|FAF DFA | GBG B,2 D | CEC A,CE | DFD A,2 G |FAF DFA | GBG B,2 D | CB,A, ECA, | D3 D :|FAF DFA | GBG E2 d | cec ABc | dcB A2 G | FAF DFA | G/A/BG E2 d | c/d/ec ABc | dce d :|
